icons/google-play.svg

<?xml version="1.0" encoding="UTF-8"?>
<svg width="512px" height="118px" viewBox="0 0 512 118" version="1.1" xmlns="http://www.w3.org/2000/svg" xmlns:xlink="http://www.w3.org/1999/xlink" preserveAspectRatio="xMidYMid">
    <g>
        <g>
            <path d="M81.281306,77.0029082 C95.2544406,69.3304036 105.847857,63.4840368 106.760926,63.0297736 C109.681838,61.4761937 112.698146,57.3651121 106.760926,54.1716421 C104.843936,53.1677206 94.5230769,47.5030591 81.281306,40.1985076 L62.924532,58.7369868 L81.281306,77.0029082 Z" fill="#FFD900"></path>
            <path d="M62.924532,58.7369868 L4.47449206,117.645833 C5.84636678,117.827538 7.39540413,117.464127 9.22154201,116.460206 C13.055523,114.36151 53.6984473,92.1662123 81.281306,77.0074509 L62.924532,58.7369868 Z" fill="#F43249"></path>
            <path d="M62.924532,58.7369868 L81.281306,40.2893602 C81.281306,40.2893602 13.3326235,3.20785899 9.22154201,1.01831059 C7.67250466,0.100699022 5.93721941,-0.17185887 4.38363943,0.100699022 L62.924532,58.7369868 Z" fill="#00EE76"></path>
            <path d="M62.924532,58.7369868 L4.38363943,0.100699022 C2.00784314,0.650357437 0,2.7490532 0,7.04184 C0,13.8921284 0,105.04003 0,110.704692 C0,114.634068 1.55357998,117.464127 4.47449206,117.736685 L62.924532,58.7369868 Z" fill="#00D3FF"></path>
        </g>
        <path d="M253.533351,47.0442533 C243.030787,47.0442533 234.354361,55.1710211 234.354361,66.3140962 C234.354361,77.3663188 242.939934,85.5839392 253.533351,85.5839392 C264.126768,85.5839392 272.712341,77.4571714 272.712341,66.3140962 C272.712341,55.1710211 264.126768,47.0442533 253.533351,47.0442533 Z M253.533351,77.9159772 C247.777837,77.9159772 242.758229,73.073532 242.758229,66.2277862 C242.758229,59.2866453 247.78238,54.5395953 253.533351,54.5395953 C259.284323,54.5395953 264.308473,59.2866453 264.308473,66.2277862 C264.308473,73.073532 259.284323,77.9159772 253.533351,77.9159772 Z M211.795653,47.0442533 C201.202236,47.0442533 192.616662,55.1710211 192.616662,66.3140962 C192.616662,77.3663188 201.202236,85.5839392 211.795653,85.5839392 C222.389069,85.5839392 230.974643,77.4571714 230.974643,66.3140962 C230.974643,55.1710211 222.389069,47.0442533 211.795653,47.0442533 Z M211.795653,77.9159772 C206.040138,77.9159772 201.020531,73.073532 201.020531,66.2277862 C201.020531,59.2866453 206.044681,54.5395953 211.795653,54.5395953 C217.551167,54.5395953 222.570775,59.2866453 222.570775,66.2277862 C222.570775,73.073532 217.637477,77.9159772 211.795653,77.9159772 L211.795653,77.9159772 Z M162.203744,52.9814727 L162.203744,61.1082405 L181.56444,61.1082405 C181.014781,65.6735852 179.465744,69.053303 177.1808,71.3382467 C174.350741,74.1683062 169.967101,77.2754661 162.203744,77.2754661 C150.238453,77.2754661 141.016911,67.5951183 141.016911,55.6298269 C141.016911,43.6645354 150.242995,33.8024824 162.203744,33.8024824 C168.686079,33.8024824 173.346819,36.3599839 176.81739,39.6488491 L182.568361,33.893335 C177.725916,29.2371377 171.243581,25.6757145 162.203744,25.6757145 C145.854813,25.6757145 132.154237,39.0991907 132.154237,55.4481216 C132.154237,71.7970525 145.854813,85.2205287 162.203744,85.2205287 C171.061876,85.2205287 177.639606,82.2996166 182.936314,76.8166603 C188.323875,71.4290993 189.968308,63.8474473 189.968308,57.7285226 C189.968308,55.8115321 189.786603,54.0762469 189.509502,52.6135195 L162.203744,52.9814727 Z M365.136723,59.2821026 C363.583143,54.9893158 358.654387,47.0442533 348.787792,47.0442533 C338.921196,47.0442533 330.794428,54.8076106 330.794428,66.3140962 C330.794428,77.0892182 338.921196,85.5839392 349.700861,85.5839392 C358.468139,85.5839392 363.49229,80.1963782 365.590986,77.0892182 L359.108651,72.7055788 C356.914559,75.9035914 353.993647,78.0022872 349.700861,78.0022872 C345.408074,78.0022872 342.396309,76.0852967 340.474776,72.1559204 L365.954396,61.471651 L365.136723,59.2821026 Z M339.198297,65.7689805 C339.016591,58.3690337 344.953811,54.5350527 349.151202,54.5350527 C352.53092,54.5350527 355.270127,56.1794853 356.274048,58.6461342 L339.198297,65.7689805 Z M318.465726,84.3074597 L326.869595,84.3074597 L326.869595,27.8652629 L318.465726,27.8652629 L318.465726,84.3074597 Z M304.769692,51.3370401 L304.497134,51.3370401 C302.580144,49.0520964 299.018721,47.0442533 294.448833,47.0442533 C284.859338,47.0442533 276.182912,55.5389742 276.182912,66.3140962 C276.182912,77.0892182 284.950191,85.4930866 294.448833,85.4930866 C299.014178,85.4930866 302.575601,83.4852434 304.497134,81.1094471 L304.769692,81.1094471 L304.769692,83.848654 C304.769692,91.2486007 300.840316,95.1734344 294.539686,95.1734344 C289.424683,95.1734344 286.22667,91.430306 284.950191,88.323146 L277.645639,91.430306 C279.744335,96.5453091 285.318144,102.845939 294.539686,102.845939 C304.401739,102.845939 312.714755,96.9995722 312.714755,82.8447324 L312.714755,48.2298801 L304.769692,48.2298801 L304.769692,51.3370401 L304.769692,51.3370401 Z M295.180197,77.9159772 C289.424683,77.9159772 284.58678,73.073532 284.58678,66.3186389 C284.58678,59.5637458 289.429225,54.6304479 295.180197,54.6304479 C300.844858,54.6304479 305.410203,59.5637458 305.410203,66.3186389 C305.405661,72.9826793 300.840316,77.9159772 295.180197,77.9159772 Z M404.31692,27.8652629 L384.22486,27.8652629 L384.22486,84.3074597 L392.628729,84.3074597 L392.628729,62.9343784 L404.31692,62.9343784 C413.633857,62.9343784 422.764546,56.1749427 422.764546,45.3998207 C422.764546,34.6246987 413.633857,27.8652629 404.31692,27.8652629 Z M404.589477,55.0847111 L392.715039,55.0847111 L392.715039,35.7194729 L404.589477,35.7194729 C410.799255,35.7194729 414.45153,40.9253286 414.45153,45.3998207 C414.36522,49.7834601 410.803797,55.0847111 404.589477,55.0847111 L404.589477,55.0847111 Z M456.284624,46.9534006 C450.256552,46.9534006 443.955922,49.6017548 441.398421,55.6298269 L448.798367,58.7369868 C450.4428,55.6298269 453.363712,54.6259053 456.470872,54.6259053 C460.854512,54.6259053 465.238151,57.2742595 465.329004,61.9304568 L465.329004,62.4801152 C463.775424,61.5670463 460.581954,60.2860242 456.561725,60.2860242 C448.52581,60.2860242 440.394499,64.7605163 440.394499,72.9826793 C440.394499,80.5643314 446.97223,85.4022339 454.276781,85.4022339 C459.941443,85.4022339 463.04406,82.8447324 464.96105,79.8329677 L465.233608,79.8329677 L465.233608,84.2166071 L473.360376,84.2166071 L473.360376,62.5709679 C473.269524,52.6180622 465.874119,46.9534006 456.284624,46.9534006 Z M455.280703,77.8251245 C452.541496,77.8251245 448.702972,76.4532498 448.702972,73.0780746 C448.702972,68.6944352 453.450022,67.0500025 457.561104,67.0500025 C461.213379,67.0500025 462.948665,67.8722189 465.233608,68.9669931 C464.593097,74.1728488 460.118605,77.8251245 455.280703,77.8251245 Z M502.67852,48.2344227 L493.089025,72.6192688 L492.816467,72.6192688 L482.863561,48.2344227 L473.823725,48.2344227 L488.800781,82.3904692 L480.30606,101.478607 L489.073339,101.478607 L511.995457,48.2344227 L502.67852,48.2344227 Z M427.425286,84.3074597 L435.829154,84.3074597 L435.829154,27.8652629 L427.425286,27.8652629 L427.425286,84.3074597 Z" fill="#808285"></path>
    </g>
</svg>

<svg xmlns="http://www.w3.org/2000/svg" viewBox="0 0 511.995 117.737">
  <path fill="#ffd900" d="M81.281 77.003c13.973-7.673 24.567-13.519 25.48-13.973 2.92-1.554 5.937-5.665 0-8.858-1.917-1.004-12.238-6.669-25.48-13.973L62.925 58.737z"/>
  <path fill="#f43249" d="m62.925 58.737-58.45 58.909c1.371.182 2.92-.182 4.747-1.186 3.834-2.098 44.476-24.294 72.06-39.453z"/>
  <path fill="#00ee76" d="M62.925 58.737 81.28 40.289S13.333 3.208 9.221 1.02C7.674.1 5.938-.172 4.385.1z"/>
  <path fill="#00d3ff" d="M62.925 58.737 4.384.101C2.008.65 0 2.749 0 7.04v103.664c0 3.93 1.554 6.76 4.474 7.032z"/>
  <path fill="#808285" d="M253.533 47.044c-10.502 0-19.179 8.127-19.179 19.27 0 11.052 8.586 19.27 19.18 19.27 10.593 0 19.178-8.127 19.178-19.27 0-11.143-8.585-19.27-19.179-19.27zm0 30.872c-5.755 0-10.775-4.842-10.775-11.688 0-6.941 5.024-11.688 10.775-11.688s10.775 4.747 10.775 11.688c0 6.846-5.024 11.688-10.775 11.688zm-41.737-30.872c-10.594 0-19.18 8.127-19.18 19.27 0 11.052 8.586 19.27 19.18 19.27 10.593 0 19.179-8.127 19.179-19.27 0-11.143-8.586-19.27-19.18-19.27zm0 30.872c-5.756 0-10.775-4.842-10.775-11.688 0-6.941 5.024-11.688 10.775-11.688 5.755 0 10.775 4.747 10.775 11.688 0 6.846-4.934 11.688-10.775 11.688zm-49.592-24.935v8.127h19.36c-.55 4.566-2.098 7.945-4.383 10.23-2.83 2.83-7.214 5.937-14.977 5.937-11.966 0-21.187-9.68-21.187-21.645s9.226-21.828 21.187-21.828c6.482 0 11.143 2.558 14.613 5.847l5.751-5.756c-4.842-4.656-11.324-8.217-20.364-8.217-16.35 0-30.05 13.423-30.05 29.772 0 16.35 13.7 29.773 30.05 29.773 8.858 0 15.436-2.921 20.732-8.404 5.388-5.388 7.032-12.97 7.032-19.088 0-1.917-.181-3.653-.458-5.115zm202.933 6.301c-1.554-4.293-6.483-12.238-16.35-12.238-9.866 0-17.993 7.764-17.993 19.27 0 10.775 8.127 19.27 18.907 19.27 8.767 0 13.791-5.388 15.89-8.495l-6.482-4.383c-2.194 3.198-5.115 5.296-9.408 5.296-4.293 0-7.305-1.917-9.226-5.846l25.48-10.684zm-25.939 6.487c-.181-7.4 5.756-11.234 9.953-11.234 3.38 0 6.12 1.644 7.123 4.111zm-20.732 18.538h8.404V27.865h-8.404zm-13.696-32.97h-.273c-1.917-2.285-5.478-4.293-10.048-4.293-9.59 0-18.266 8.495-18.266 19.27s8.767 19.18 18.266 19.18c4.565 0 8.127-2.009 10.048-4.385h.273v2.74c0 7.4-3.93 11.324-10.23 11.324-5.115 0-8.313-3.743-9.59-6.85l-7.304 3.107c2.098 5.115 7.672 11.416 16.894 11.416 9.862 0 18.175-5.846 18.175-20.001V48.23h-7.945zm-9.59 26.579c-5.755 0-10.593-4.842-10.593-11.597s4.842-11.689 10.593-11.689c5.665 0 10.23 4.934 10.23 11.689-.005 6.664-4.57 11.597-10.23 11.597zm109.137-50.05h-20.092v56.441h8.404V62.934h11.688c9.317 0 18.448-6.76 18.448-17.534 0-10.775-9.131-17.535-18.448-17.535zm.272 27.219h-11.874V35.719h11.874c6.21 0 9.863 5.206 9.863 9.68-.087 4.384-3.648 9.686-9.863 9.686zm51.696-8.132c-6.028 0-12.33 2.649-14.887 8.677l7.4 3.107c1.645-3.107 4.566-4.111 7.673-4.111 4.384 0 8.767 2.648 8.858 7.304v.55c-1.554-.913-4.747-2.194-8.767-2.194-8.036 0-16.168 4.475-16.168 12.697 0 7.581 6.578 12.42 13.883 12.42 5.664 0 8.767-2.558 10.684-5.57h.273v4.384h8.126V62.57c-.09-9.953-7.486-15.618-17.075-15.618zm-1.004 30.872c-2.74 0-6.578-1.372-6.578-4.747 0-4.384 4.747-6.028 8.858-6.028 3.652 0 5.388.822 7.673 1.917-.64 5.206-5.115 8.858-9.953 8.858zm47.398-29.59-9.59 24.384h-.273l-9.952-24.385h-9.04L488.8 82.39l-8.495 19.089h8.767l22.922-53.245zm-75.254 36.072h8.404V27.865h-8.404z"/>
</svg>
